X:233
M:C|
L:1/8
K:F
a|fc fg/a/ gdde|~fc fg/a/ cfaf|bgaf gfdg|fcde ~f2 fa|~fc fg/a/ gdde|
fadf cfAc|BGAF GABd|FCDE F2 ~F||

